icons/light/merge.svg

<svg width="16" height="16" viewBox="0 0 16 16" fill="none" xmlns="http://www.w3.org/2000/svg">
<path fill-rule="evenodd" clip-rule="evenodd" d="M10.5002 4.64639L8.35388 2.5H7.64677L5.50034 4.64639L6.20744 5.35349L7.3003 4.26066V5.27972H7.28082V5.73617L7.30568 5.73717C7.30768 5.84794 7.30968 5.95412 7.31169 6.05572C7.31538 6.24322 7.33201 6.43462 7.36158 6.62994C7.39114 6.82525 7.42994 7.02056 7.47799 7.21587C7.52603 7.41119 7.59255 7.62017 7.67755 7.84283C7.83276 8.22173 8.02124 8.56548 8.24297 8.87408C8.4647 9.18267 8.70307 9.47173 8.95806 9.74127C9.21306 10.0108 9.46621 10.2764 9.71751 10.5381C9.9688 10.7999 10.1961 11.0792 10.3993 11.376C10.6026 11.6729 10.767 11.9971 10.8927 12.3487C11.0183 12.7002 11.0812 13.1045 11.0812 13.5616V14.4463H12.5003V13.5616C12.4929 13.042 12.4375 12.5792 12.334 12.1729C12.2305 11.7667 12.0882 11.3995 11.9071 11.0713C11.7261 10.7432 11.5246 10.4444 11.3029 10.1749C11.0812 9.90533 10.8502 9.64752 10.61 9.40142C10.3698 9.15533 10.1388 8.90923 9.91707 8.66314C9.69533 8.41705 9.49392 8.15533 9.31284 7.87798C9.13176 7.60064 8.98763 7.29595 8.88046 6.96392C8.77329 6.63189 8.7197 6.25494 8.7197 5.83306V5.27972H8.71901V4.27935L9.79314 5.3535L10.5002 4.64639ZM7.04245 9.74127C7.15517 9.62213 7.26463 9.49917 7.37085 9.3724C7.12665 9.01878 6.92109 8.63423 6.75218 8.22189L6.74317 8.19952C6.70951 8.11134 6.67794 8.02386 6.6486 7.93713C6.47774 8.19261 6.28936 8.43461 6.08345 8.66314C5.86172 8.90923 5.63074 9.15533 5.39053 9.40142C5.15032 9.64752 4.91935 9.90533 4.69761 10.1749C4.47588 10.4444 4.27447 10.7432 4.09338 11.0713C3.9123 11.3995 3.77002 11.7667 3.66654 12.1729C3.56307 12.5792 3.50764 13.042 3.50024 13.5616V14.4463H4.91935V13.5616C4.91935 13.1045 4.98217 12.7002 5.10782 12.3487C5.23347 11.9971 5.39792 11.6729 5.60118 11.376C5.80444 11.0792 6.03171 10.7999 6.28301 10.5381C6.53431 10.2764 6.78746 10.0108 7.04245 9.74127Z" fill="#424242"/>
</svg>

<svg width="16" height="16" viewBox="0 0 16 16" fill="none" xmlns="http://www.w3.org/2000/svg">
<path fill-rule="evenodd" clip-rule="evenodd" d="M10.5002 4.6464 8.3539 2.5H7.6468L5.5003 4.6464l.7071.7071L7.3003 4.2607v1.019l.0054.4575c.002.1107.004.2169.006.3185.0037.1875.0203.3789.0499.5742.0295.1953.0683.3907.1164.586.048.1953.1146.4043.1996.6269.1552.3789.3436.7227.5654 1.0313.2217.3086.4601.5976.7151.8672.255.2695.5081.5351.7594.7968.2513.2618.4786.5411.6818.8379.2033.2969.3677.6211.4934.9727.1256.3515.1885.7558.1885 1.2129v.8847h1.4191v-.8847c-.0074-.5196-.0628-.9824-.1663-1.3887-.1035-.4062-.2458-.7734-.4269-1.1016-.181-.3281-.3825-.6269-.6042-.8964-.2217-.2696-.4527-.5274-.6929-.7735s-.4712-.4922-.6929-.7383c-.2218-.2461-.4232-.5078-.6043-.7851-.181-.2774-.3252-.582-.4323-.9141-.1072-.332-.1608-.709-.1608-1.1308V5.2797H8.719V4.2793L9.7931 5.3535l.7071-.7071ZM7.0424 9.7413c.1128-.1192.2222-.2421.3284-.3689-.2442-.3536-.4497-.7382-.6186-1.1505l-.009-.0224c-.0337-.0882-.0653-.1756-.0946-.2624-.1709.2555-.3592.4975-.5651.726-.2218.2461-.4528.4922-.693.7383-.2402.2461-.4712.5039-.6929.7735-.2217.2695-.4231.5683-.6042.8964-.1811.3282-.3234.6954-.4269 1.1016-.1034.4063-.1589.8691-.1663 1.3887v.8847H4.9193v-.8847c0-.4571.0629-.8614.1885-1.2129.1257-.3516.2901-.6758.4934-.9727.2032-.2968.4305-.5761.6818-.8379.2513-.2617.5045-.5273.7594-.7968Z" fill="#424242"/>
</svg>
